public/images/alphabetical.svg

<?xml version="1.0" encoding="UTF-8" standalone="no"?>
<svg
   width="500"
   height="500"
   version="1.1"
   viewBox="0 0 132.292 132.292"
   id="svg136"
   sodipodi:docname="alphabetical.svg"
   inkscape:version="1.2.2 (b0a8486, 2022-12-01)"
   xmlns:inkscape="http://www.inkscape.org/namespaces/inkscape"
   xmlns:sodipodi="http://sodipodi.sourceforge.net/DTD/sodipodi-0.dtd"
   xmlns="http://www.w3.org/2000/svg"
   xmlns:svg="http://www.w3.org/2000/svg">
  <defs
     id="defs140" />
  <sodipodi:namedview
     id="namedview138"
     pagecolor="#ffffff"
     bordercolor="#111111"
     borderopacity="1"
     inkscape:showpageshadow="0"
     inkscape:pageopacity="0"
     inkscape:pagecheckerboard="1"
     inkscape:deskcolor="#d1d1d1"
     showgrid="false"
     inkscape:zoom="1.0673461"
     inkscape:cx="200.96574"
     inkscape:cy="246.874"
     inkscape:window-width="1494"
     inkscape:window-height="825"
     inkscape:window-x="0"
     inkscape:window-y="25"
     inkscape:window-maximized="0"
     inkscape:current-layer="svg136" />
  <g
     transform="translate(0,-164.70832)"
     id="g134"
     style="fill:#02cc00;fill-opacity:1">
    <path
       id="path132"
       style="opacity:1;fill:#02cc00;fill-opacity:1;stroke:none;stroke-width:0.10442502;stroke-miterlimit:4;stroke-dasharray:none;stroke-opacity:1"
       transform="matrix(0.26458333,0,0,0.26458333,0,164.70832)"
       d="m 0,0 v 398.3125 c 12.801782,-2.25914 21.08438,-5.19593 24.849609,-8.81055 7.681069,-7.22924 16.191527,-21.91318 25.529297,-44.05273 L 158.13867,93.328125 h 7.90821 l 106.13085,253.634765 160.5,-228.39062 h -98.04687 c -16.26579,0 -28.0889,1.80725 -35.46875,5.42187 -7.22924,3.46401 -12.80096,8.58391 -16.7168,15.36133 -3.76523,6.6268 -7.22978,19.12763 -10.39258,37.50195 h -8.58398 l 6.32422,-76.58398 h 226.5918 L 295.41016,387.63672 c 0.15744,0.14777 0.31605,0.30875 0.47265,0.44922 h 124.82227 c 19.27798,0 34.03592,-4.21628 44.27734,-12.65039 10.39204,-8.43412 19.58021,-25.52903 27.5625,-51.28321 L 500,325.50781 V 0 Z m 500,325.50781 -14.45898,81.10352 H 325.31641 v 0.0605 H 204.45117 v -8.35938 c 12.19935,-0.60244 20.40794,-2.6356 24.625,-6.09961 4.36767,-3.46401 6.55274,-7.68029 6.55274,-12.65039 0,-6.6268 -3.01275,-17.09447 -9.03711,-31.40234 L 208.06641,304.10547 H 89.460938 l -20.783204,48.3457 c -5.120712,11.89813 -7.68164,20.78445 -7.68164,26.65821 0,4.66887 2.185067,8.81116 6.552734,12.42578 4.518276,3.46401 14.156315,5.72308 28.916016,6.77734 v 8.35938 H 0 V 500 H 500 Z M 149.78125,163.58789 96.464844,287.38867 H 201.74023 Z M 0,0 H 500.0013 V 500.0013 H 0 Z" />
  </g>
</svg>

<svg xmlns="http://www.w3.org/2000/svg" width="500" height="500" version="1.1"
     viewBox="0 0 132.292 132.292">
    <g transform="translate(0,-164.70832)">
        <path style="opacity:1;fill:#fff;fill-opacity:1;stroke:none;stroke-width:.10442502;stroke-miterlimit:4;stroke-dasharray:none;stroke-opacity:1"
              d="M 0 0 L 0 398.3125 C 12.801782 396.05336 21.08438 393.11657 24.849609 389.50195 C 32.530678 382.27271 41.041136 367.58877 50.378906 345.44922 L 158.13867 93.328125 L 166.04688 93.328125 L 272.17773 346.96289 L 432.67773 118.57227 L 334.63086 118.57227 C 318.36507 118.57227 306.54196 120.37952 299.16211 123.99414 C 291.93287 127.45815 286.36115 132.57805 282.44531 139.35547 C 278.68008 145.98227 275.21553 158.4831 272.05273 176.85742 L 263.46875 176.85742 L 269.79297 100.27344 L 496.38477 100.27344 L 295.41016 387.63672 C 295.5676 387.78449 295.72621 387.94547 295.88281 388.08594 L 420.70508 388.08594 C 439.98306 388.08594 454.741 383.86966 464.98242 375.43555 C 475.37446 367.00143 484.56263 349.90652 492.54492 324.15234 L 500 325.50781 L 500 0 L 0 0 z M 500 325.50781 L 485.54102 406.61133 L 325.31641 406.61133 L 325.31641 406.67188 L 204.45117 406.67188 L 204.45117 398.3125 C 216.65052 397.71006 224.85911 395.6769 229.07617 392.21289 C 233.44384 388.74888 235.62891 384.5326 235.62891 379.5625 C 235.62891 372.9357 232.61616 362.46803 226.5918 348.16016 L 208.06641 304.10547 L 89.460938 304.10547 L 68.677734 352.45117 C 63.557022 364.3493 60.996094 373.23562 60.996094 379.10938 C 60.996094 383.77825 63.181161 387.92054 67.548828 391.53516 C 72.067104 394.99917 81.705143 397.25824 96.464844 398.3125 L 96.464844 406.67188 L 0 406.67188 L 0 500 L 500 500 L 500 325.50781 z M 149.78125 163.58789 L 96.464844 287.38867 L 201.74023 287.38867 L 149.78125 163.58789 z"
              transform="matrix(0.26458333,0,0,0.26458333,0,164.70832)"/>
    </g>
</svg>
